X: 41
T:Dinny O'Brien's Reel
M:C|
L:1/8
R:Reel
K:DMix
fd~d2 ABcA|dcAd cAGE|~D2FD ADFD|(3EFG AB cdeg|!
fd~d2 ABcA|dcAd cAGE|~D2AD (3EFG AB|cAGE EDD2:|!
|:fdd^c defg|ad~d2 adfa|gccB cdef|gc~c2 gceg|!
fd~d2 ABcA|dcAd cAGE|~D2AD (3EFG AB|cAGE EDD2:|
